X:173
T:None Other Lamb
%%stretchlast false
M:3/2
L:1/4
K:C clef=C1
"^I¹"[E,G,CG] "^ii7"[D,A,CF] "^V7"[G,,B,DF] "^I"[C,G,DE]2 [C,G,CE] | "^I¹"[E,G,CG] "^ii7"[D,A,CF] "^V7"[G,,B,DF] "^I"[C,G,DE]2 [C,G,CE] | [C,G,CE] [C,G,CE] "^V¹"[B,,G,DG] "^vi7"[A,,G,Ec]3/2 "^V"[A,,G,DB]/ "^II7"[D,^F,CA] | "^V²"[D,G,B,G] "^vi"[D,A,CE] "^II"[D,CD^F] "^i"[G,,CDG]2 "^V"[G,,B,DG] | [G,DB] [F,G,B,A] "^V7³"[F,G,B,G] "^vi7²"[E,G,CA]3/2 "^I¹"[E,G,CG]/ [E,G,CG] | "^IV"[F,CFA] "^iii¹"[G,B,EG] "^V7"[G,B,DF] "^III7¹"[^G,B,DE]2 "^vi"[A,CE]2 | "^vi7³"[G,A,CE]2 "^ii7¹"[F,A,CD]2 "^I²"[G,CE]2 | "^V7"[G,,G,B,F]2 "^I"[C,G,CE]3 |]
